assets/ios/swift/Icons.xcassets/visibilityOff.imageset/visibilityOff.svg

<svg width="24" height="24" viewBox="0 0 24 24" fill="none" xmlns="http://www.w3.org/2000/svg">
<path d="M16.1 13.3001L14.65 11.8501C14.8 11.0668 14.575 10.3334 13.975 9.6501C13.375 8.96676 12.6 8.7001 11.65 8.8501L10.2 7.4001C10.4834 7.26676 10.7709 7.16676 11.0625 7.1001C11.3542 7.03343 11.6667 7.0001 12 7.0001C13.25 7.0001 14.3125 7.4376 15.1875 8.3126C16.0625 9.1876 16.5 10.2501 16.5 11.5001C16.5 11.8334 16.4667 12.1459 16.4 12.4376C16.3334 12.7293 16.2334 13.0168 16.1 13.3001ZM19.3 16.4501L17.85 15.0501C18.4834 14.5668 19.0459 14.0376 19.5375 13.4626C20.0292 12.8876 20.45 12.2334 20.8 11.5001C19.9667 9.81676 18.7709 8.47926 17.2125 7.4876C15.6542 6.49593 13.9167 6.0001 12 6.0001C11.5167 6.0001 11.0417 6.03343 10.575 6.1001C10.1084 6.16676 9.65005 6.26676 9.20005 6.4001L7.65005 4.8501C8.33338 4.56676 9.03338 4.35426 9.75005 4.2126C10.4667 4.07093 11.2167 4.0001 12 4.0001C14.3834 4.0001 16.525 4.62926 18.425 5.8876C20.325 7.14593 21.75 8.78343 22.7 10.8001C22.75 10.8834 22.7834 10.9876 22.8 11.1126C22.8167 11.2376 22.825 11.3668 22.825 11.5001C22.825 11.6334 22.8125 11.7626 22.7875 11.8876C22.7625 12.0126 22.7334 12.1168 22.7 12.2001C22.3167 13.0501 21.8375 13.8334 21.2625 14.5501C20.6875 15.2668 20.0334 15.9001 19.3 16.4501ZM19.1 21.9001L15.6 18.4501C15.0167 18.6334 14.4292 18.7709 13.8375 18.8626C13.2459 18.9543 12.6334 19.0001 12 19.0001C9.61672 19.0001 7.47505 18.3709 5.57505 17.1126C3.67505 15.8543 2.25005 14.2168 1.30005 12.2001C1.25005 12.1168 1.21672 12.0126 1.20005 11.8876C1.18338 11.7626 1.17505 11.6334 1.17505 11.5001C1.17505 11.3668 1.18338 11.2418 1.20005 11.1251C1.21672 11.0084 1.25005 10.9084 1.30005 10.8251C1.65005 10.0751 2.06672 9.38343 2.55005 8.7501C3.03338 8.11676 3.56672 7.53343 4.15005 7.0001L2.07505 4.9001C1.89172 4.71676 1.80005 4.4876 1.80005 4.2126C1.80005 3.9376 1.90005 3.7001 2.10005 3.5001C2.28338 3.31676 2.51672 3.2251 2.80005 3.2251C3.08338 3.2251 3.31672 3.31676 3.50005 3.5001L20.5 20.5001C20.6834 20.6834 20.7792 20.9126 20.7875 21.1876C20.7959 21.4626 20.7 21.7001 20.5 21.9001C20.3167 22.0834 20.0834 22.1751 19.8 22.1751C19.5167 22.1751 19.2834 22.0834 19.1 21.9001ZM5.55005 8.4001C5.06672 8.83343 4.62505 9.30843 4.22505 9.8251C3.82505 10.3418 3.48338 10.9001 3.20005 11.5001C4.03338 13.1834 5.22922 14.5209 6.78755 15.5126C8.34588 16.5043 10.0834 17.0001 12 17.0001C12.3334 17.0001 12.6584 16.9793 12.975 16.9376C13.2917 16.8959 13.6167 16.8501 13.95 16.8001L13.05 15.8501C12.8667 15.9001 12.6917 15.9376 12.525 15.9626C12.3584 15.9876 12.1834 16.0001 12 16.0001C10.75 16.0001 9.68755 15.5626 8.81255 14.6876C7.93755 13.8126 7.50005 12.7501 7.50005 11.5001C7.50005 11.3168 7.51255 11.1418 7.53755 10.9751C7.56255 10.8084 7.60005 10.6334 7.65005 10.4501L5.55005 8.4001Z" fill="black"/>
</svg>

<svg xmlns="http://www.w3.org/2000/svg" width="24" height="24" fill="black" viewBox="0 0 24 24">
  <path d="m16.1 13.3-1.45-1.45c.15-.783-.075-1.517-.675-2.2-.6-.683-1.375-.95-2.325-.8L10.2 7.4a4.24 4.24 0 0 1 .862-.3A4.2 4.2 0 0 1 12 7c1.25 0 2.312.437 3.187 1.312S16.5 10.25 16.5 11.5c0 .333-.034.646-.1.938a4.25 4.25 0 0 1-.3.862Zm3.2 3.15-1.45-1.4a10.956 10.956 0 0 0 1.687-1.588A8.898 8.898 0 0 0 20.8 11.5c-.834-1.683-2.03-3.02-3.588-4.013C15.654 6.496 13.916 6 12 6c-.483 0-.959.033-1.425.1a9.622 9.622 0 0 0-1.375.3L7.65 4.85A11.08 11.08 0 0 1 12 4c2.383 0 4.525.63 6.425 1.887 1.9 1.259 3.325 2.896 4.275 4.913.05.083.083.188.1.313s.025.254.025.387a1.972 1.972 0 0 1-.125.7 10.896 10.896 0 0 1-3.4 4.25Zm-.2 5.45-3.5-3.45c-.583.183-1.171.32-1.763.413-.591.091-1.204.137-1.837.137-2.384 0-4.525-.63-6.425-1.887-1.9-1.259-3.325-2.896-4.275-4.913a.813.813 0 0 1-.1-.313 2.932 2.932 0 0 1 0-.762.796.796 0 0 1 .1-.3A11.2 11.2 0 0 1 2.55 8.75 13.292 13.292 0 0 1 4.15 7L2.075 4.9a.933.933 0 0 1-.275-.688c0-.275.1-.512.3-.712a.948.948 0 0 1 .7-.275c.283 0 .516.092.7.275l17 17a.977.977 0 0 1 .287.688.93.93 0 0 1-.287.712.948.948 0 0 1-.7.275.948.948 0 0 1-.7-.275ZM5.55 8.4c-.484.433-.925.908-1.325 1.425A9.014 9.014 0 0 0 3.2 11.5c.833 1.683 2.029 3.02 3.587 4.012C8.346 16.505 10.083 17 12 17c.333 0 .658-.02.975-.063.316-.041.642-.087.975-.137l-.9-.95c-.184.05-.359.088-.525.113A3.539 3.539 0 0 1 12 16c-1.25 0-2.313-.438-3.188-1.313C7.937 13.813 7.5 12.75 7.5 11.5c0-.183.012-.358.037-.525.025-.167.063-.342.113-.525L5.55 8.4Z"/>
</svg>
